icon/pk/ambulance.svg

<svg viewBox="0 0 48 48" fill="none" xmlns="http://www.w3.org/2000/svg" height="1em" width="1em">
  <path d="M10 35H6C4.89543 35 4 34.1046 4 33V11C4 9.89543 4.89543 9 6 9H31C32.1046 9 33 9.89543 33 11V17.8987C33 19.1602 33.7892 20.287 34.9748 20.7181L42.0252 23.2819C43.2108 23.713 44 24.8398 44 26.1013V33C44 34.1046 43.1046 35 42 35H38" stroke="black" stroke-width="4" stroke-linejoin="round"/>
  <path d="M18 35H30" stroke="black" stroke-width="4" stroke-linejoin="round"/>
  <path d="M12 19L20 19" stroke="black" stroke-width="4" stroke-linecap="round" stroke-linejoin="round"/>
  <path d="M16 15V23" stroke="black" stroke-width="4" stroke-linecap="round" stroke-linejoin="round"/>
  <circle cx="14" cy="35" r="4" fill="#2F88FF" stroke="black" stroke-width="4"/>
  <circle cx="34" cy="35" r="4" fill="#2F88FF" stroke="black" stroke-width="4"/>
</svg>

<svg width="48" height="48" fill="none" xmlns="http://www.w3.org/2000/svg"><path d="M10 35H6a2 2 0 0 1-2-2V11a2 2 0 0 1 2-2h25a2 2 0 0 1 2 2v6.899a3 3 0 0 0 1.975 2.82l7.05 2.563A3 3 0 0 1 44 26.102V33a2 2 0 0 1-2 2h-4M18 35h12" stroke="#000" stroke-width="4" stroke-linejoin="round"/><path d="M12 19h8M16 15v8" stroke="#000" stroke-width="4" stroke-linecap="round" stroke-linejoin="round"/><circle cx="14" cy="35" r="4" fill="#2F88FF" stroke="#000" stroke-width="4"/><circle cx="34" cy="35" r="4" fill="#2F88FF" stroke="#000" stroke-width="4"/></svg>
